T: Tour 25
M: 4/4
L: 1/8
K: Gmaj
On the recording the fourth bar of the B part is often played as |gffc fa za| or |gffc faca|.A|:GD D/2D/2D GABc|dGe^c dBAG|CEEG AGEG|BGEG cGEG|DG G/2G/2G AGFG|ADDB DDcA|dGGe dBAG| [1EGFA G3A:| [2EGFA G4||:geed AGGE|DGGA BAAc|Bd d/2d/2d edBd|eddA dAfA|geed AGGE|DGGA BAAc|Bd d/2d/2d edBd| [1edBA G3d:| [2edBA G3|]
